images/firefox-brauzer.svg

<svg width="105" height="100" viewBox="0 0 105 100" fill="none" xmlns="http://www.w3.org/2000/svg">
<g id="firefox">
<path id="Path" d="M105 50C105 78.8617 81.4866 100 52.5 100C23.5134 100 0 76.5878 0 47.7261C0 38.6827 2.32969 30.1359 6.39187 22.7261C6.43781 22.5889 6.52969 22.4516 6.62156 22.3602C4.33781 18.9558 3.33375 10.3176 9.12844 4.5413C9.12844 6.95243 10.5919 11.0886 12.2325 14.1793C13.5581 16.6362 14.9691 18.407 15.9731 18.1783C18.2569 17.6359 26.2434 17.6359 27.3853 18.1783C29.2622 15.7737 33.8297 9.08913 41.0878 9.08913C37.0256 13.1338 25.3837 27.2739 45.6553 27.2739C47.9391 27.2739 50.2228 27.2739 50.2228 27.2739L36.5203 36.363C36.5203 36.363 38.0756 39.3623 36.5203 40.9109C34.7878 39.1793 27.3919 42.7731 27.3919 47.7261C27.3919 52.679 32.6878 59.0891 43.3716 59.0891C54.0553 59.0891 51.3581 54.5413 57.0675 54.5413C62.7769 54.5413 63.9122 59.0891 63.9122 59.0891C56.0569 59.0891 50.3541 68.1783 41.0878 68.1783C45.6553 71.5434 48.6675 72.7261 54.7837 72.7261C69.8972 72.7261 82.1756 60.5005 82.1756 45.4522C82.1756 39.3623 80.1675 33.769 76.7878 29.2277C82.9041 33.7755 87.0122 40.7737 87.7472 48.7258C88.5675 45.5436 89.0269 42.1328 89.0269 38.637C89.0269 24.9543 83.1862 6.86095 73.0472 0C87.6553 4.35834 105 18.4658 105 45.4522C105 45.9553 105 49.4969 105 50Z" fill="#FF9800"/>
</g>
</svg>

<svg width="105" height="100" fill="none" xmlns="http://www.w3.org/2000/svg"><path d="M105 50c0 28.862-23.513 50-52.5 50S0 76.588 0 47.726c0-9.043 2.33-17.59 6.392-25a.995.995 0 0 1 .23-.366C4.338 18.956 3.334 10.318 9.128 4.541c0 2.411 1.464 6.548 3.104 9.638 1.326 2.457 2.737 4.228 3.741 4 2.284-.543 10.27-.543 11.412 0 1.877-2.405 6.445-9.09 13.703-9.09-4.062 4.045-15.704 18.185 4.567 18.185h4.568L36.52 36.363s1.556 3 0 4.548c-1.732-1.732-9.128 1.862-9.128 6.815s5.296 11.363 15.98 11.363c10.683 0 7.986-4.548 13.696-4.548 5.709 0 6.844 4.548 6.844 4.548-7.855 0-13.558 9.09-22.824 9.09 4.567 3.364 7.58 4.547 13.696 4.547 15.113 0 27.392-12.225 27.392-27.274 0-6.09-2.008-11.683-5.388-16.224a27.413 27.413 0 0 1 10.96 19.498 40.554 40.554 0 0 0 1.279-10.089c0-13.683-5.84-31.776-15.98-38.637C87.655 4.358 105 18.466 105 45.452V50Z" fill="#FF9800"/></svg>
